X:52
T:The Lark On The Strand
R:Jig
S:Tony Smith, Cavan (fiddle)
Z:Bernie Stocks
N:As played
M:6/8
K:G
|: ABA {B}AGA | {d}BGE ~G3 | ABA GBd | egd edB | 
ABA {B}AGA | {d}BGE (3.G.G.ED | GBA G2B | dBG (3.B.c.dB :|
|: GBd ~g3 | gba gdB | GBd ~g2d | egd edB |
GBd ~g3 | gba gfg | aba {b}age | edg edB :|
<end>
<start>
